!!!OTL: Potz marter kuri falty
!!!ARE: Europa, Mitteleuropa, Deutschland
!!!SCT: A0384
!!!YEM: Copyright 1995, estate of Helmut Schaffrath.
**kern
*ICvox
*Ivox
!! Mixed meters:  4/2; 6/2
*M4/2
*k[b-]
*d:
{2fn
=1
2fn
2fn
2e
2d
=2
1a
1a}
=3
{1fn
=4
*M6/2
2a
1a
2a
1g
=5
*M4/2
1fn
2r}
{2fn
=6
2fn
2fn
2e
2d
=7
1a
1a}
=8
{1fn
=9
*M6/2
2a
1a
2a
1g
=10
*M4/2
1fn
2r}
{2fn
=11
2fn
2a
2a
2g
=12
1e
1d}
=13
{1a
=14
*M6/2
2g
1g
2e
1d
=15
*M4/2
1cn
2r}
{2fn
=16
2fn
2fn
2e
2d
=17
*M6/2
1a
2b-
1ccn}
{2b-
=18
2a
1g
2fn
1e
=19
1.d}
==
!!!AGN: Romanze, Ballade, Lied, Personenlied
!! Hs. im Codex der Stiftsbibl. zu St. Gallen
!!!ONB: ESAC (Essen Associative Code) Database: ALTDEU
!!!AMT: irregular
!!!AIN: vox
!!!EED: Helmut Schaffrath
!!!EEV: 1.0
*-
